packages/kaspersky-hexa-ui-icons/src/iconsSVGs/32/AppsCheck.svg

<svg xmlns="http://www.w3.org/2000/svg" width="32" height="32" fill="none" viewBox="0 0 32 32"><path fill="#000" fill-rule="evenodd" d="M7 4C5.3431 4 4 5.3431 4 7v5c0 1.6569 1.3431 3 3 3h5c1.6569 0 3-1.3431 3-3V7c0-1.6569-1.3431-3-3-3zm10 3c0-1.6569 1.3431-3 3-3h5c1.6569 0 3 1.3431 3 3v5c0 1.6569-1.3431 3-3 3h-5c-1.6569 0-3-1.3431-3-3zM6 7c0-.5523.4477-1 1-1h5c.5523 0 1 .4477 1 1v5c0 .5523-.4477 1-1 1H7c-.5523 0-1-.4477-1-1zm14-1c-.5523 0-1 .4477-1 1v5c0 .5523.4477 1 1 1h5c.5523 0 1-.4477 1-1V7c0-.5523-.4477-1-1-1zM4 20c0-1.6569 1.3431-3 3-3h5c1.6569 0 3 1.3431 3 3v5c0 1.6569-1.3431 3-3 3H7c-1.6569 0-3-1.3431-3-3zm3-1c-.5523 0-1 .4477-1 1v5c0 .5523.4477 1 1 1h5c.5523 0 1-.4477 1-1v-5c0-.5523-.4477-1-1-1zm20.2071 1.7071-5 5c-.3905.3905-1.0237.3905-1.4142 0l-2.5-2.5c-.3905-.3905-.3905-1.0237 0-1.4142s1.0237-.3905 1.4142 0L21.5 23.5858l4.2929-4.2929c.3905-.3905 1.0237-.3905 1.4142 0s.3905 1.0237 0 1.4142"/></svg>

<svg width="32" height="32" viewBox="0 0 32 32" fill="none" xmlns="http://www.w3.org/2000/svg">
<path fill-rule="evenodd" clip-rule="evenodd" d="M7 4C5.34315 4 4 5.34315 4 7V12C4 13.6569 5.34315 15 7 15H12C13.6569 15 15 13.6569 15 12V7C15 5.34315 13.6569 4 12 4H7ZM6 7C6 6.44772 6.44772 6 7 6H12C12.5523 6 13 6.44772 13 7V12C13 12.5523 12.5523 13 12 13H7C6.44772 13 6 12.5523 6 12V7Z" fill="black"/>
<path fill-rule="evenodd" clip-rule="evenodd" d="M20 4C18.3431 4 17 5.34315 17 7V12C17 13.6569 18.3431 15 20 15H25C26.6569 15 28 13.6569 28 12V7C28 5.34315 26.6569 4 25 4H20ZM19 7C19 6.44772 19.4477 6 20 6H25C25.5523 6 26 6.44772 26 7V12C26 12.5523 25.5523 13 25 13H20C19.4477 13 19 12.5523 19 12V7Z" fill="black"/>
<path fill-rule="evenodd" clip-rule="evenodd" d="M4 20C4 18.3431 5.34315 17 7 17H12C13.6569 17 15 18.3431 15 20V25C15 26.6569 13.6569 28 12 28H7C5.34315 28 4 26.6569 4 25V20ZM7 19C6.44772 19 6 19.4477 6 20V25C6 25.5523 6.44772 26 7 26H12C12.5523 26 13 25.5523 13 25V20C13 19.4477 12.5523 19 12 19H7Z" fill="black"/>
<path d="M22.2071 25.7071L27.2071 20.7071C27.5976 20.3166 27.5976 19.6834 27.2071 19.2929C26.8166 18.9024 26.1834 18.9024 25.7929 19.2929L21.5 23.5858L19.7071 21.7929C19.3166 21.4024 18.6834 21.4024 18.2929 21.7929C17.9024 22.1834 17.9024 22.8166 18.2929 23.2071L20.7929 25.7071C21.1834 26.0976 21.8166 26.0976 22.2071 25.7071Z" fill="black"/>
</svg>
